signal-2g.svg

<svg  viewBox="0 0 24 24" fill="currentColor"><path  d="M11,19.5H2V13.5A3,3 0 0,1 5,10.5H8V7.5H2V4.5H8A3,3 0 0,1 11,7.5V10.5A3,3 0 0,1 8,13.5H5V16.5H11M22,10.5H17.5V13.5H19V16.5H16V7.5H22V4.5H16A3,3 0 0,0 13,7.5V16.5A3,3 0 0,0 16,19.5H19A3,3 0 0,0 22,16.5"/></svg>

<svg fill="currentColor" viewBox="0 0 24 24"><path d="M11 19.5H2v-6a3 3 0 0 1 3-3h3v-3H2v-3h6a3 3 0 0 1 3 3v3a3 3 0 0 1-3 3H5v3h6m11-6h-4.5v3H19v3h-3v-9h6v-3h-6a3 3 0 0 0-3 3v9a3 3 0 0 0 3 3h3a3 3 0 0 0 3-3"/></svg>
